web/ui/src/assets/svgs/index/graph-project-btn.svg

<svg height="56" viewBox="0 0 56 56" width="56" xmlns="http://www.w3.org/2000/svg"><g fill="none" fill-rule="evenodd"><circle cx="28" cy="28" fill="#e1edff" r="28"/><path d="m6 6h44v44h-44z" fill="#000" fill-rule="nonzero" opacity="0"/><path d="m13.2755555 11h29.448889c1.2567546 0 2.2755555 1.0188009 2.2755555 2.2755555v29.448889c0 1.2567546-1.0188009 2.2755555-2.2755555 2.2755555h-29.448889c-1.2567546 0-2.2755555-1.0188009-2.2755555-2.2755555v-29.448889c0-1.2567546 1.0188009-2.2755555 2.2755555-2.2755555zm6.4060684 10.8247863c-1.9037215 0-3.4508547-1.5482834-3.4508547-3.4508547 0-1.9037215 1.5471332-3.4508547 3.4508547-3.4508547 1.6144983 0 2.9738737 1.114092 3.3485128 2.6147712l11.6051909.0006134c3.1713355 0 5.7514245 2.5800891 5.7514245 5.7514245 0 3.1713355-2.580089 5.7514246-5.7514245 5.7514246l-3.202313.0005633c-.5518004 1.172328-1.7443514 1.9851916-3.1242539 1.9851916s-2.5724535-.8128636-3.1242539-1.9851916l-3.202313-.0005633c-1.9025713 0-3.4508548 1.5471332-3.4508548 3.4508547 0 1.9025712 1.5482835 3.4508547 3.4508548 3.4508547l10.4549059-.0002372c.3746392-1.5002272 1.7340145-2.6151475 3.3485128-2.6151475 1.9025713 0 3.4508547 1.5482835 3.4508547 3.4508547s-1.5482834 3.4508547-3.4508547 3.4508547c-1.3789677 0-2.57182-.8133488-3.1239433-1.985433l-10.6794754-.000322c-3.1713355 0-5.7514246-2.580089-5.7514246-5.7514244 0-3.1713355 2.5800891-5.7514246 5.7514246-5.7514246l2.977987-.0006134c.3744106-1.5006792 1.7331055-2.6147712 3.3485799-2.6147712s2.9741692 1.114092 3.3485799 2.6147712l2.977987.0006134c1.9025713 0 3.4508547-1.5471332 3.4508547-3.4508547 0-1.9025712-1.5482834-3.4508547-3.4508547-3.4508547l-11.8301123.001069c-.5522782 1.1716827-1.7449166 1.984686-3.1235914 1.984686zm16.1039886 13.8034188c-.6152954.0275237-1.0999801.5343742-1.0999801 1.1502849 0 .6159108.4846847 1.1227612 1.0999801 1.1502849.6152955-.0275237 1.0999801-.5343741 1.0999801-1.1502849 0-.6159107-.4846846-1.1227612-1.0999801-1.1502849zm-7.4768518-9.2022792c-.6152956.0275235-1.0999804.5343741-1.0999804 1.1502849 0 .6159109.4846848 1.1227614 1.0999804 1.1502849.6152955-.0275235 1.0999804-.534374 1.0999804-1.1502849 0-.6159108-.4846849-1.1227614-1.0999804-1.1502849zm-8.6271368-9.2022792c-.6152954.0275237-1.0999801.5343742-1.0999801 1.1502849s.4846847 1.1227612 1.0999801 1.1502849c.6152955-.0275237 1.0999801-.5343742 1.0999801-1.1502849s-.4846846-1.1227612-1.0999801-1.1502849z" fill="#1768e4"/></g></svg>

<?xml version="1.0" encoding="UTF-8"?>
<svg width="56px" height="56px" viewBox="0 0 56 56" version="1.1" xmlns="http://www.w3.org/2000/svg" xmlns:xlink="http://www.w3.org/1999/xlink">
    <title>研发项目节点审批流程</title>
    <g id="页面-1" stroke="none" stroke-width="1" fill="none" fill-rule="evenodd">
        <g id="建木CI-图形编辑器入口备份-3" transform="translate(-180.000000, -104.000000)">
            <g id="研发项目节点审批流程" transform="translate(180.000000, 104.000000)">
                <circle id="椭圆形" fill="#E1EDFF" cx="28" cy="28" r="28"></circle>
                <rect id="矩形" fill="#000000" fill-rule="nonzero" opacity="0" x="6" y="6" width="44" height="44"></rect>
                <path d="M13.2755555,11 L42.7244445,11 C43.9811991,11 45,12.0188009 45,13.2755555 L45,42.7244445 C45,43.9811991 43.9811991,45 42.7244445,45 L13.2755555,45 C12.0188009,45 11,43.9811991 11,42.7244445 L11,13.2755555 C11,12.0188009 12.0188009,11 13.2755555,11 Z M19.6816239,21.8247863 C17.7779024,21.8247863 16.2307692,20.2765029 16.2307692,18.3739316 C16.2307692,16.4702101 17.7779024,14.9230769 19.6816239,14.9230769 C21.2961222,14.9230769 22.6554976,16.0371689 23.0301367,17.5378481 L34.6353276,17.5384615 C37.8066631,17.5384615 40.3867521,20.1185506 40.3867521,23.289886 C40.3867521,26.4612215 37.8066631,29.0413106 34.6353276,29.0413106 L31.4330146,29.0418739 C30.8812142,30.2142019 29.6886632,31.0270655 28.3087607,31.0270655 C26.9288582,31.0270655 25.7363072,30.2142019 25.1845068,29.0418739 L21.9821938,29.0413106 C20.0796225,29.0413106 18.531339,30.5884438 18.531339,32.4921653 C18.531339,34.3947365 20.0796225,35.94302 21.9821938,35.94302 L32.4370997,35.9427828 C32.8117389,34.4425556 34.1711142,33.3276353 35.7856125,33.3276353 C37.6881838,33.3276353 39.2364672,34.8759188 39.2364672,36.77849 C39.2364672,38.6810612 37.6881838,40.2293447 35.7856125,40.2293447 C34.4066448,40.2293447 33.2137925,39.4159959 32.6616692,38.2439117 L21.9821938,38.2435897 C18.8108583,38.2435897 16.2307692,35.6635007 16.2307692,32.4921653 C16.2307692,29.3208298 18.8108583,26.7407407 21.9821938,26.7407407 L24.9601808,26.7401273 C25.3345914,25.2394481 26.6932863,24.1253561 28.3087607,24.1253561 C29.9242351,24.1253561 31.2829299,25.2394481 31.6573406,26.7401273 L34.6353276,26.7407407 C36.5378989,26.7407407 38.0861823,25.1936075 38.0861823,23.289886 C38.0861823,21.3873148 36.5378989,19.8390313 34.6353276,19.8390313 L22.8052153,19.8401003 C22.2529371,21.011783 21.0602987,21.8247863 19.6816239,21.8247863 Z M35.7856125,35.6282051 C35.1703171,35.6557288 34.6856324,36.1625793 34.6856324,36.77849 C34.6856324,37.3944008 35.1703171,37.9012512 35.7856125,37.9287749 C36.400908,37.9012512 36.8855926,37.3944008 36.8855926,36.77849 C36.8855926,36.1625793 36.400908,35.6557288 35.7856125,35.6282051 Z M28.3087607,26.4259259 C27.6934651,26.4534494 27.2087803,26.9603 27.2087803,27.5762108 C27.2087803,28.1921217 27.6934651,28.6989722 28.3087607,28.7264957 C28.9240562,28.6989722 29.4087411,28.1921217 29.4087411,27.5762108 C29.4087411,26.9603 28.9240562,26.4534494 28.3087607,26.4259259 Z M19.6816239,17.2236467 C19.0663285,17.2511704 18.5816438,17.7580209 18.5816438,18.3739316 C18.5816438,18.9898423 19.0663285,19.4966928 19.6816239,19.5242165 C20.2969194,19.4966928 20.781604,18.9898423 20.781604,18.3739316 C20.781604,17.7580209 20.2969194,17.2511704 19.6816239,17.2236467 Z" id="矩形-2" fill="#1768E4"></path>
            </g>
        </g>
    </g>
</svg>
